X:1
T:Title
%%score { 1 | ( 2 3 ) }
L:1/8
Q:1/4=94
M:4/4
K:F
V:1 treble nm="Grand Piano"
V:2 bass 
V:3 bass 
V:1
 F>E F>G A>G F>G | A2 [GB]2 [Ac]4 | [GB]>[FA] [GB]>[Ac] [Bd]>[Ac] [GB]>[Ac] | %3
w: W.~A.~Post * * * * * * *|||
 [EBd]2 [EBd]2 [EBd]4 | [CAc]>[D_A=B] [C=Ac]>[Ad] [Ac]2 [G_B]2 | %5
w: ||
 [GB]>[^FA] [GB]>[Ac] [GB]2 [=FA]2 | [DG]>[DF] [CE]>D C2 F2 | [FA]>[GB] [FA]>[EG] F4 | %8
w: |||
 A>_A =A>B c2 A2 | d2 A2 c2 E2 | F>E F>G A2 c>c | =B>c d>e [Ec]2 _B2 | A>_A =A>B c2 A2 | %13
w: |||||
 [Fd]2 A2 B2 A2 | G>[DF] [CE]>D C2 F2 | [FA]>[GB] [FA]>[CG] [A,CF]4 |] %16
w: |||
V:2
 [F,A,C]>[F,G,C] [F,A,C]>[F,B,C] [F,CF]>[F,B,C] [F,A,C]>[F,B,C] | [F,CF]2 [F,C]2 [F,C]4 | %2
 [C,C]>[C,C] [C,C]>[C,C] [C,C]>[C,C] [C,C]>[C,C] | C,2 C,2 C,4 | F,>F, F,>[F,C] [^F,_E]2 [G,D]2 | %5
 [E,C]>[E,C] [C,C]>[C,C] [F,C]4 | [B,,B,]>[B,,B,] [B,,F,]>[B,,F,B,] [C,F,A,]2 [C,A,C]2 | %7
 [C,C]>[C,C] [C,C]>[C,B,] [F,A,]4 | [F,CF]>[F,=B,F] [F,CF]>[F,G,F] [F,A,F]2 [F,CF]2 | %9
 [F,A,F]2 [F,CF]2 [G,B,E]2 [G,B,C]2 | [A,C]>[B,C] [A,C]>[G,CE] [F,CF]2 [F,A,F]>[F,A,F] | %11
 [G,F]>[G,E] [G,=B,F]>[G,B,G][K:bass] z2 G2 | [F,CF]>[F,=B,F] [F,CF]>[F,G,F] [F,A,F]2 [F,CF]2 | %13
 [D,D]2 [^F,D]2[K:treble] [G,DG]2 [A,CF]2 | [B,D]>[B,,B,] [B,,B,]>[B,,F,B,] [C,F,A,]2 [C,A,C]2 | %15
 [C,C]>[C,C] [C,C]>[C,B,] [F,,F,]4 |] %16
V:3
 x8 | x8 | x8 | x8 | x8 | x8 | x8 | x8 | x8 | x8 | x8 | z4[K:bass] [C,C]4 | x8 | x4[K:treble] x4 | %14
 x8 | x8 |] %16

